app/src/assets/icons/website/camera.svg

<svg xmlns="http://www.w3.org/2000/svg" viewBox="0 0 24 24" width="512" height="512"><path d="M22 5h-3.656l-.386-1.288A1 1 0 0017 3H7.6a1 1 0 00-.958.712L6.256 5H2a1 1 0 00-1 1v14a1 1 0 001 1h20a1 1 0 001-1V6a1 1 0 00-1-1zm-1 14H3V7h4a1 1 0 00.958-.712L8.344 5h7.912l.386 1.288A1 1 0 0017.6 7H21z"/><path d="M12 7a5 5 0 105 5 5.006 5.006 0 00-5-5zm0 8a3 3 0 113-3 3 3 0 01-3 3z"/></svg>

<?xml version="1.0"?>
<svg xmlns="http://www.w3.org/2000/svg" viewBox="0 0 24 24" width="512" height="512"><path d="M22,5H18.344l-.386-1.288A1,1,0,0,0,17,3H7.6a1,1,0,0,0-.958.712L6.256,5H2A1,1,0,0,0,1,6V20a1,1,0,0,0,1,1H22a1,1,0,0,0,1-1V6A1,1,0,0,0,22,5ZM21,19H3V7H7a1,1,0,0,0,.958-.712L8.344,5h7.912l.386,1.288A1,1,0,0,0,17.6,7H21Z"/><path d="M12,7a5,5,0,1,0,5,5A5.006,5.006,0,0,0,12,7Zm0,8a3,3,0,1,1,3-3A3,3,0,0,1,12,15Z"/></svg>
